assets/images/mail-contacts.svg

<svg fill="none" height="11" viewBox="0 0 16 11" width="16" xmlns="http://www.w3.org/2000/svg"><g fill="#000"><path d="m15.074 1.57761-3.93 3.99611c-.0132.01328-.0206.03124-.0206.04995s.0074.03667.0206.04996l2.75 2.92613c.0443.044.0794.09631.1034.15392.0239.05761.0363.11938.0363.18177 0 .06238-.0124.12415-.0363.18175-.024.05761-.0591.10992-.1034.15392-.0892.08882-.21.13869-.336.13869s-.2468-.04987-.336-.13869l-2.74-2.90517c-.0141-.01404-.0331-.02191-.053-.02191s-.0389.00787-.053.02191l-.66799.67834c-.27364.27935-.60033.50134-.96092.65298-.36059.15165-.74784.2299-1.13908.23016-.39932-.00163-.79429-.08287-1.16176-.23898s-.70005-.38395-.97824-.67014l-.643-.65337c-.01407-.01403-.03313-.02191-.053-.02191-.01988 0-.03894.00788-.053.02191l-2.739 2.91517c-.08922.08883-.21005.13869-.336.13869-.12596 0-.24678-.04986-.336-.13869-.04427-.044-.07939-.09631-.10336-.15391-.02397-.05761-.0363-.11939-.0363-.18177 0-.06239.01233-.12415.0363-.18176.02397-.0576.05909-.10991.10336-.15391l2.75-2.92615c.01171-.01402.01813-.03169.01813-.04994 0-.01826-.00642-.03594-.01813-.04996l-3.934003-3.99611c-.010011-.01044-.022942-.01764-.0371056-.02064-.0141637-.00299-.0289007-.00164-.0422898.00386-.013389.0055-.0248077.0149-.0327644.02698-.00795673.01209-.01208051.02629-.01183701.04075v8.0022c.00079198.30949.12420681.60605.34326581.82495.219058.2188.515938.3421.825734.3429h12.85999c.3098-.0008.6067-.1241.8257-.3429.2191-.2189.3425-.51546.3433-.82495v-8.0022c.0017-.01501-.0013-.03018-.0086-.04341-.0073-.01324-.0185-.02388-.0321-.03046s-.029-.00878-.0439-.00628c-.0149.00249-.0287.00956-.0394.02021z"/><path d="m7.60001 6.97118c.26608.00075.5296-.05193.77491-.15489.2453-.10297.46739-.25414.65309-.44452l5.73099-5.827205c-.2045-.165532-.4598-.25582-.723-.255742h-12.86799c-.263333-.000732-.518804.08963-.723003.255742l5.731003 5.827205c.18522.1899.40667.34079.65125.44374.24459.10295.50734.15589.77275.15567z"/></g></svg>

<svg width="16" height="11" viewBox="0 0 16 11" fill="none" xmlns="http://www.w3.org/2000/svg">
<path d="M15.074 1.57761L11.144 5.57372C11.1308 5.587 11.1234 5.60496 11.1234 5.62367C11.1234 5.64238 11.1308 5.66034 11.144 5.67363L13.894 8.59976C13.9383 8.64376 13.9734 8.69607 13.9974 8.75368C14.0213 8.81129 14.0337 8.87306 14.0337 8.93545C14.0337 8.99783 14.0213 9.0596 13.9974 9.1172C13.9734 9.17481 13.9383 9.22712 13.894 9.27112C13.8048 9.35994 13.684 9.40981 13.558 9.40981C13.432 9.40981 13.3112 9.35994 13.222 9.27112L10.482 6.36595C10.4679 6.35191 10.4489 6.34404 10.429 6.34404C10.4091 6.34404 10.3901 6.35191 10.376 6.36595L9.70801 7.04429C9.43437 7.32364 9.10768 7.54563 8.74709 7.69727C8.3865 7.84892 7.99925 7.92717 7.60801 7.92743C7.20869 7.9258 6.81372 7.84456 6.44625 7.68845C6.07878 7.53234 5.7462 7.3045 5.46801 7.01831L4.82501 6.36494C4.81094 6.35091 4.79188 6.34303 4.77201 6.34303C4.75213 6.34303 4.73307 6.35091 4.71901 6.36494L1.98001 9.28011C1.89079 9.36894 1.76996 9.4188 1.64401 9.4188C1.51805 9.4188 1.39723 9.36894 1.30801 9.28011C1.26374 9.23611 1.22862 9.1838 1.20465 9.1262C1.18068 9.06859 1.16835 9.00681 1.16835 8.94443C1.16835 8.88204 1.18068 8.82028 1.20465 8.76267C1.22862 8.70507 1.26374 8.65276 1.30801 8.60876L4.05801 5.68261C4.06972 5.66859 4.07614 5.65092 4.07614 5.63267C4.07614 5.61441 4.06972 5.59673 4.05801 5.58271L0.124007 1.5866C0.113996 1.57616 0.101065 1.56896 0.0869014 1.56596C0.0727377 1.56297 0.0580007 1.56432 0.0446116 1.56982C0.0312226 1.57532 0.0198039 1.58472 0.0118472 1.5968C0.00389047 1.60889 -0.000233313 1.62309 1.01945e-05 1.63755V9.63975C0.000802174 9.94924 0.124217 10.2458 0.343276 10.4647C0.562334 10.6835 0.859214 10.8068 1.16901 10.8076H14.029C14.3388 10.8068 14.6357 10.6835 14.8547 10.4647C15.0738 10.2458 15.1972 9.94924 15.198 9.63975V1.63755C15.1997 1.62254 15.1967 1.60737 15.1894 1.59414C15.1821 1.5809 15.1709 1.57026 15.1573 1.56368C15.1437 1.5571 15.1283 1.5549 15.1134 1.5574C15.0985 1.55989 15.0847 1.56696 15.074 1.57761Z" fill="black"/>
<path d="M7.60001 6.97118C7.86609 6.97193 8.12961 6.91925 8.37492 6.81629C8.62022 6.71332 8.84231 6.56215 9.02801 6.37177L14.759 0.544565C14.5545 0.379033 14.2992 0.288745 14.036 0.288823H1.16801C0.904677 0.288091 0.649206 0.378453 0.445007 0.544565L6.17601 6.37177C6.36123 6.56167 6.58268 6.71256 6.82726 6.81551C7.07185 6.91846 7.3346 6.9714 7.60001 6.97118Z" fill="black"/>
</svg>
